src/icons/outline/symbols/hours.svg

<svg width="24" height="24" viewBox="0 0 24 24" fill="none" xmlns="http://www.w3.org/2000/svg">
<g clip-path="url(#clip0_4589_404)">
<path d="M12 6.56348C12.4009 6.56351 12.7334 6.89601 12.7334 7.29688V11.6973L17.1035 16.0674C17.3871 16.3509 17.3871 16.82 17.1035 17.1035C16.9569 17.2501 16.7716 17.3193 16.5859 17.3193C16.4002 17.3193 16.214 17.2502 16.0674 17.1035L11.4814 12.5186C11.4187 12.4558 11.3699 12.3836 11.335 12.3066C11.2911 12.2131 11.2666 12.109 11.2666 12V7.29688C11.2666 6.89599 11.5991 6.56348 12 6.56348Z" fill="#3C3B44"/>
<path fill-rule="evenodd" clip-rule="evenodd" d="M12 1C18.0622 1 23 5.93778 23 12C23 18.0622 18.0622 23 12 23C5.93778 23 1 18.0622 1 12C1 5.93778 5.93778 1 12 1ZM12 2.4668C6.73956 2.4668 2.4668 6.73956 2.4668 12C2.4668 17.2604 6.73956 21.5332 12 21.5332C17.2604 21.5332 21.5332 17.2604 21.5332 12C21.5332 6.73956 17.2604 2.4668 12 2.4668Z" fill="#3C3B44"/>
</g>
<defs>
<clipPath id="clip0_4589_404">
<rect width="24" height="24" fill="white"/>
</clipPath>
</defs>
</svg>

<svg xmlns="http://www.w3.org/2000/svg" width="24" height="24" fill="none" viewBox="0 0 24 24"><g fill="currentColor" clip-path="url(#a)"><path d="M12 6.563c.4 0 .733.333.733.734v4.4l4.37 4.37a.737.737 0 0 1 0 1.037.727.727 0 0 1-1.036 0l-4.586-4.585a.7.7 0 0 1-.146-.212.7.7 0 0 1-.068-.307V7.297c0-.401.332-.734.733-.734"/><path fill-rule="evenodd" d="M12 1c6.062 0 11 4.938 11 11s-4.938 11-11 11S1 18.062 1 12 5.938 1 12 1m0 1.467C6.74 2.467 2.467 6.74 2.467 12S6.74 21.533 12 21.533 21.533 17.26 21.533 12 17.26 2.467 12 2.467" clip-rule="evenodd"/></g><defs><clipPath id="a"><path fill="currentColor" d="M0 0h24v24H0z"/></clipPath></defs></svg>
